img/footer/google.svg

<svg width="18" height="17" viewBox="0 0 18 17" fill="none" xmlns="http://www.w3.org/2000/svg">
<path d="M17.5781 9.46094C17.5781 8.89844 17.5078 8.47656 17.4375 8.01953H9.14062V11.0078H14.0625C13.8867 12.3086 12.5859 14.7695 9.14062 14.7695C6.15234 14.7695 3.72656 12.3086 3.72656 9.25C3.72656 4.36328 9.49219 2.11328 12.5859 5.10156L14.9766 2.81641C13.4648 1.41016 11.4609 0.53125 9.14062 0.53125C4.28906 0.53125 0.421875 4.43359 0.421875 9.25C0.421875 14.1016 4.28906 17.9688 9.14062 17.9688C14.168 17.9688 17.5781 14.4531 17.5781 9.46094Z" fill="#5A7184"/>
</svg>

<svg width="18" height="17" fill="none" xmlns="http://www.w3.org/2000/svg"><path d="M17.578 9.46c0-.562-.07-.983-.14-1.44H9.14v2.988h4.921c-.175 1.3-1.476 3.762-4.921 3.762-2.989 0-5.414-2.461-5.414-5.52 0-4.887 5.765-7.137 8.859-4.148l2.39-2.286A8.456 8.456 0 0 0 9.142.531 8.695 8.695 0 0 0 .42 9.25a8.673 8.673 0 0 0 8.72 8.719c5.027 0 8.437-3.516 8.437-8.508z" fill="#5A7184"/></svg>
